X:1
T:Signora, io penso
T:Signora, io penso
T:Ponponio Nenna
T:Source: Secondo libro delle villanelle a 3 voci---Venetia---Figlio d'A.Gardano---1574. Editor : André Vierendeels (25/03/16).
T:Notes : Original clefs : G2, C1, C3 Editorial accidentals above the staff "Alla napolitana" Music by composers from Bari, collected by G.de Antiquis The composer is named as "Pomponio" in this print
T:©
T:©
C:Ponponio Nenna
Z:©
%%score [ 1 2 3 ]
L:1/8
Q:1/4=96
M:4/4
K:F
V:1 treble nm="Soprano 1" snm="S 1"
V:2 treble nm="Soprano 2" snm="S 2"
V:3 treble-8 nm="Tenor" snm="T"
V:1
 B4 AGAB | A4 z2 c2 | c2 B2 A3 A | d2 d2 c3 c | c4 G4 | G4 A4 |[M:2/4] G4 ::[M:4/4] z2 c2 c2 c2 | %8
w: 1)Si- gno- * * *|ra, si-|gno- ra'io pen- so'a|quel che tu non|1)pen- si,|non pen-|si,|e pen- san-|
w: 2)Non pen- * * *|so, non|pen- so gi'al pen-|sie- ro che tu|2)pen- si,|tu pen-|si,|ma pen- s'o-|
w: 3)Es' i- * * *|o pen-|sas- se al pen-|sier che tu pen-|3)si, che|tu pen-|si,|for- si pen-|
w: 4)A te _ _ _|_ a|te pen- sar mo|las- so il pen-|4)sier mio,|pen- sier|mio,|e si tu|
 B2 B2 A4 | d2 c4 c2 | B4 A2 d2 | d2 cB A2 G2 | A4 G2 G2- | G2 B3 c d2- | d2 A2 B4 | A4 B4 | %16
w: do'al pen- sier|1)del- pen- sier|mi- o, col|pen- sar _ mi di-|strug- go col|1)- pen- siar mi|_ di- strug-|go'e mi|
w: gni pen- sier|2del pen- sier|mi- o, e|col pen- * sar mi|strug- go e|2) col pen- sar|_ mi strug-|go'e mi|
w: san- do pen-|3)sa- ria che|i- o, pen-|san- do'a _ sti pen-|sie- ri mi|3) de- si- o,|_ pen- sie-|ri mi|
w: pen- si a|4)quel c'ho pen-|sa t'io, ha-|rai pen- * sa- to|tut- to'il mio|4) de- si- o,|_ tut- to|il mio|
 c4 A4 |[M:2/4] G4 :| %18
w: des- vi-|o.|
w: des- vi-|o.|
w: de- si-|o.|
w: de- si-|o.|
V:2
 G4 FEFG | ^F4 z2 A2 | A2 G2 F3 F | B2 B2 A3 A | A4 E4 | E4 F4 |[M:2/4] G4 ::[M:4/4] z2 A2 A2 A2 | %8
w: 1)Si- gno- * * *|ra, si-|gno- ra'io pen- so'a|quel che tu non|1)pen- si,|non pen-|si,|e pen- san-|
w: 2)Non pen- * * *|so, non|pen- so gi'al pen-|sie- ro che tu|2)pen- si,|tu pen-|si,|ma pen- s'o-|
 G2 G2 F4- | F2 B2 A2 A2 | G4 F2 B2 | B2 AG F2 G2- |"^#" G2 F2 G4 | z2 D4 G2- | G2 ^F2 G2 G2 | %15
w: do'al pen- sier|1) del pen- sier|mi- o, col|pen- sar _ mi di-|* strug- go|1)col pen-|* sar mi strug-|
w: gni pen- sier|2)del pen- sier mi-|o e col|pen sar _ mi strug-|* * go|2)e col|_ pen- sar mi|
"^#" F4 G4 |"^b" E2 G4 ^F2 |[M:2/4] G4 :| %18
w: go'e mi|des- vi- *|o.|
w: strug- go'e|mi des- vi-|o.|
V:3
 G4 dcde | d4 z2 f2 | f2 g2 d3 d | B2 B2 f3 f | c4 c4 | c4 d4 |[M:2/4] G4 ::[M:4/4] z2 F2 F2 F2 | %8
w: 3)Es' i- * * *|o pen-|sas- se al pen-|sier che tu pen-|3)si, che|tu pen-|si,|for- si pen-|
w: 4)A te _ _ _|_ a|te pen- sar mo|las- so il pen-|4)sier mio,|pen- sier|mio,|e si tu|
 GABc d4 | B2 F4 F2 | G4 d2 B2 | B2 c2 d2 _e2 | d4 G4 | G4 B3 c | d4 G4 | d4 _e4 | c2 c2 d4 | %17
w: san- * * * do|3)pen- sa- ria|che io, pen-|san- do'a sti pen-|sie- ri|3)mi de- si-|o, mi|strug- go'e|mi des- vi-|
w: pen- * * * si'al|4)quel c'ho pen-|sa- t'io, ha-|rai pen- sa- to|tut- to'il|4)mio de- si-|o, tut-|to'il mi-|o de- si-|
[M:2/4] G4 :| %18
w: o.|
w: o.|

